src/standard/standup.svg

<svg xmlns="http://www.w3.org/2000/svg" viewBox="0 0 36 36">
  <path d="M12 12.62h3.74c2.73 2.67 1.8 2.66 4.52 0H24a.62.62 0 0 0 .62-.62V6a.62.62 0 0 0-.62-.62H12a.62.62 0 0 0-.62.62v6a.62.62 0 0 0 .62.62Zm.62-6h10.76v4.76H20a.59.59 0 0 0-.44.18L18 13.12l-1.56-1.56a.59.59 0 0 0-.44-.18h-3.38Zm15.97 18.71a3.19 3.19 0 1 0-4.18 0 5.68 5.68 0 0 0-1 .63 5.52 5.52 0 0 0-3.26-4 3.18 3.18 0 1 0-4.24 0 5.52 5.52 0 0 0-3.26 4 5.68 5.68 0 0 0-1-.63 3.19 3.19 0 1 0-4.18 0 5.13 5.13 0 0 0-3 4.67.62.62 0 0 0 .62.62H31a.62.62 0 0 0 .62-.62 5.13 5.13 0 0 0-3.03-4.67Zm-4-2.4a2 2 0 0 1 3.9 0 2 2 0 0 1-3.94 0Zm1.95 3.19a3.88 3.88 0 0 1 3.81 3.26h-7.66a3.88 3.88 0 0 1 3.81-3.26Zm-10.49-6.55a2 2 0 0 1 3.9 0 2 2 0 0 1-3.9 0Zm1.95 3.2a4.24 4.24 0 0 1 4.23 4.4 5.1 5.1 0 0 0-.79 2.21h-6.88a5.1 5.1 0 0 0-.79-2.21 4.24 4.24 0 0 1 4.23-4.4Zm-10.45.16a2 2 0 0 1 3.9 0 2 2 0 0 1-3.9 0Zm2 3.19a3.88 3.88 0 0 1 3.81 3.26H5.69a3.88 3.88 0 0 1 3.81-3.26Z"/>
</svg>

<svg id="a2ed0141-86bc-42ad-818e-344555e48e24" data-name="Icon" xmlns="http://www.w3.org/2000/svg" viewBox="0 0 36 36">
  <title>Standup icon - Black</title>
<desc>agile, team, discussion, projects, communication, people and audiences</desc>
<metadata><?xpacket begin="﻿" id="W5M0MpCehiHzreSzNTczkc9d"?>
<x:xmpmeta xmlns:x="adobe:ns:meta/" x:xmptk="Adobe XMP Core 8.0-c001 1.000000, 0000/00/00-00:00:00        ">
   <rdf:RDF xmlns:rdf="http://www.w3.org/1999/02/22-rdf-syntax-ns#">
      <rdf:Description rdf:about=""
            xmlns:xmp="http://ns.adobe.com/xap/1.0/"
            xmlns:dc="http://purl.org/dc/elements/1.1/"
            xmlns:cq="http://www.day.com/jcr/cq/1.0"
            xmlns:tiff="http://ns.adobe.com/tiff/1.0/">
         <xmp:rhcc-effective-on>2023-12-08T17:34:04.382Z</xmp:rhcc-effective-on>
         <xmp:rhcc-metadata-complete-moderator>pending</xmp:rhcc-metadata-complete-moderator>
         <xmp:rhcc-translation-id>TRAb8391d70-2b6b-40f7-9a3a-91eb6339d1ce</xmp:rhcc-translation-id>
         <xmp:brand-content-type>Icon</xmp:brand-content-type>
         <xmp:CreateDate>2023-12-08T17:34:04.382Z</xmp:CreateDate>
         <xmp:rhcc-effective-on-set-on-upload>true</xmp:rhcc-effective-on-set-on-upload>
         <xmp:rhcc-metadata-complete-uploader>pending</xmp:rhcc-metadata-complete-uploader>
         <xmp:rhcc-file-last-modified>2023-12-08T17:34:16.892Z</xmp:rhcc-file-last-modified>
         <xmp:rhcc-audience>rhcc-audience:internal</xmp:rhcc-audience>
         <xmp:rhcc-rights-restricted>no</xmp:rhcc-rights-restricted>
         <xmp:brand-content-subtype>Icon</xmp:brand-content-subtype>
         <xmp:rhcc-derivative-id>DERb8391d70-2b6b-40f7-9a3a-91eb6339d1ce</xmp:rhcc-derivative-id>
         <xmp:brand-logo-color>Black</xmp:brand-logo-color>
         <xmp:rhcc-notify-portal-subscribers-on-change>yes</xmp:rhcc-notify-portal-subscribers-on-change>
         <dc:format>image/svg+xml</dc:format>
         <dc:modified>2024-02-09T20:23:04.523Z</dc:modified>
         <dc:title>
            <rdf:Alt>
               <rdf:li xml:lang="x-default">Standup icon - Black</rdf:li>
            </rdf:Alt>
         </dc:title>
         <dc:description>
            <rdf:Alt>
               <rdf:li xml:lang="x-default">agile, team, discussion, projects, communication, people and audiences</rdf:li>
            </rdf:Alt>
         </dc:description>
         <cq:lastReplicationAction_scene7>Activate</cq:lastReplicationAction_scene7>
         <cq:lastReplicationAction_publish>Activate</cq:lastReplicationAction_publish>
         <cq:lastReplicated_publish>2024-02-09T22:03:24.395Z</cq:lastReplicated_publish>
         <cq:lastReplicatedBy>workflow-process-service</cq:lastReplicatedBy>
         <cq:lastReplicationAction>Activate</cq:lastReplicationAction>
         <cq:lastReplicatedBy_publish>workflow-process-service</cq:lastReplicatedBy_publish>
         <cq:isDelivered>true</cq:isDelivered>
         <cq:lastReplicated>2024-02-09T22:03:24.395Z</cq:lastReplicated>
         <cq:lastReplicatedBy_scene7>workflow-process-service</cq:lastReplicatedBy_scene7>
         <cq:lastReplicated_scene7>2024-02-09T22:03:24.395Z</cq:lastReplicated_scene7>
         <tiff:ImageLength>36</tiff:ImageLength>
         <tiff:ImageWidth>36</tiff:ImageWidth>
      </rdf:Description>
   </rdf:RDF>
</x:xmpmeta>
                                                                                                    
                                                                                                    
                                                                                                    
                                                                                                    
                                                                                                    
                                                                                                    
                                                                                                    
                                                                                                    
                                                                                                    
                                                                                                    
                                 
<?xpacket end="w"?></metadata>
<g>
    <path d="M12,12.62h3.74c2.73,2.67,1.8,2.66,4.52,0H24a.62.62,0,0,0,.62-.62V6A.62.62,0,0,0,24,5.38H12a.62.62,0,0,0-.62.62v6A.62.62,0,0,0,12,12.62Zm.62-6H23.38v4.76H20a.59.59,0,0,0-.44.18L18,13.12l-1.56-1.56a.59.59,0,0,0-.44-.18H12.62Z"/>
    <path d="M28.59,25.33a3.19,3.19,0,1,0-4.18,0,5.68,5.68,0,0,0-1,.63,5.52,5.52,0,0,0-3.26-4,3.18,3.18,0,1,0-4.24,0,5.52,5.52,0,0,0-3.26,4,5.68,5.68,0,0,0-1-.63,3.19,3.19,0,1,0-4.18,0,5.13,5.13,0,0,0-3,4.67.62.62,0,0,0,.62.62H31a.62.62,0,0,0,.62-.62A5.13,5.13,0,0,0,28.59,25.33Zm-4-2.4a2,2,0,0,1,3.9,0A2,2,0,0,1,24.55,22.93Zm1.95,3.19a3.88,3.88,0,0,1,3.81,3.26H22.69A3.88,3.88,0,0,1,26.5,26.12ZM16.05,19.57a2,2,0,0,1,3.9,0A2,2,0,0,1,16.05,19.57ZM18,22.77a4.24,4.24,0,0,1,4.23,4.4,5.1,5.1,0,0,0-.79,2.21H14.56a5.1,5.1,0,0,0-.79-2.21A4.24,4.24,0,0,1,18,22.77Zm-10.45.16a2,2,0,0,1,3.9,0A2,2,0,0,1,7.55,22.93Zm2,3.19a3.88,3.88,0,0,1,3.81,3.26H5.69A3.88,3.88,0,0,1,9.5,26.12Z"/>
  </g>
</svg>
